assets/images/icons/detail-feature-03.svg

<svg width="16" height="16" viewBox="0 0 16 16" fill="none" xmlns="http://www.w3.org/2000/svg">
<g id="fi_12887972" clip-path="url(#clip0_242_14071)">
<g id="Captions">
<g id="Group">
<path id="Vector" d="M1.50136 4.97877H14.5039C14.6624 4.97877 14.8135 4.91346 14.9222 4.79836C15.031 4.68327 15.0874 4.52847 15.0785 4.37021L15.0713 4.22088C14.9778 2.70969 13.7146 1.52594 12.1951 1.52594H11.4556V0.950472C11.4556 0.632811 11.1978 0.375 10.8801 0.375C10.5624 0.375 10.3046 0.632811 10.3046 0.950472V1.52594H5.70086V0.950472C5.70086 0.632811 5.44305 0.375 5.12539 0.375C4.80773 0.375 4.54992 0.632811 4.54992 0.950472V1.52594H3.81044C2.29091 1.52594 1.02746 2.70998 0.933945 4.22203L0.926751 4.3705C0.917544 4.52847 0.974227 4.68327 1.0827 4.79865C1.19118 4.91403 1.3431 4.97877 1.50136 4.97877Z" fill="#7FB51F"/>
<path id="Vector_2" d="M15.167 6.69072C15.1595 6.37853 14.904 6.12964 14.5918 6.12964H1.41059C1.0984 6.12964 0.843175 6.37853 0.835118 6.69072C0.783613 8.75235 0.820156 10.8068 0.943882 12.7976C1.03366 14.2421 2.19064 15.3988 3.6345 15.4885C5.08354 15.5795 6.54236 15.6249 8.00118 15.6249C9.45971 15.6249 10.9191 15.5795 12.3673 15.4882C13.8117 15.3985 14.9684 14.2415 15.0585 12.7973C15.1822 10.8068 15.2187 8.75206 15.167 6.69072ZM10.8785 9.58247C10.4018 9.58247 10.0153 9.19604 10.0153 8.71926C10.0153 8.24248 10.4018 7.85605 10.8785 7.85605C11.3553 7.85605 11.7417 8.24248 11.7417 8.71926C11.7417 9.19604 11.3553 9.58247 10.8785 9.58247ZM11.7417 11.5966C11.7417 12.0734 11.3553 12.4598 10.8785 12.4598C10.4018 12.4598 10.0153 12.0734 10.0153 11.5966C10.0153 11.1198 10.4018 10.7334 10.8785 10.7334C11.3553 10.7334 11.7417 11.1198 11.7417 11.5966ZM5.12382 10.7334C5.6006 10.7334 5.98703 11.1198 5.98703 11.5966C5.98703 12.0734 5.6006 12.4598 5.12382 12.4598C4.64704 12.4598 4.26061 12.0734 4.26061 11.5966C4.26061 11.1198 4.64704 10.7334 5.12382 10.7334ZM4.26061 8.71926C4.26061 8.24248 4.64704 7.85605 5.12382 7.85605C5.6006 7.85605 5.98703 8.24248 5.98703 8.71926C5.98703 9.19604 5.6006 9.58247 5.12382 9.58247C4.64704 9.58247 4.26061 9.19604 4.26061 8.71926ZM7.13797 11.5966C7.13797 11.1198 7.5244 10.7334 8.00118 10.7334C8.47796 10.7334 8.86439 11.1198 8.86439 11.5966C8.86439 12.0734 8.47796 12.4598 8.00118 12.4598C7.5244 12.4598 7.13797 12.0734 7.13797 11.5966ZM8.00118 9.58247C7.5244 9.58247 7.13797 9.19604 7.13797 8.71926C7.13797 8.24248 7.5244 7.85605 8.00118 7.85605C8.47796 7.85605 8.86439 8.24248 8.86439 8.71926C8.86439 9.19604 8.47796 9.58247 8.00118 9.58247Z" fill="#7FB51F"/>
</g>
</g>
</g>
<defs>
<clipPath id="clip0_242_14071">
<rect width="16" height="16" fill="white"/>
</clipPath>
</defs>
</svg>

<svg xmlns="http://www.w3.org/2000/svg" width="16" height="16" fill="none"><g fill="#7FB51F" clip-path="url(#a)"><path d="M1.501 4.979h13.003a.575.575 0 0 0 .575-.609l-.008-.15a2.88 2.88 0 0 0-2.876-2.694h-.74V.95a.576.576 0 0 0-1.15 0v.576H5.7V.95a.576.576 0 0 0-1.151 0v.576h-.74A2.88 2.88 0 0 0 .934 4.222l-.007.148a.576.576 0 0 0 .574.609M15.167 6.69a.575.575 0 0 0-.575-.56H1.41a.576.576 0 0 0-.576.56 71 71 0 0 0 .109 6.108 2.88 2.88 0 0 0 2.69 2.69 70 70 0 0 0 8.733 0 2.88 2.88 0 0 0 2.691-2.69c.124-1.991.16-4.046.109-6.107m-4.288 2.892a.863.863 0 1 1 0-1.726.863.863 0 0 1 0 1.726m.863 2.015a.863.863 0 1 1-1.727 0 .863.863 0 0 1 1.727 0m-6.618-.864a.863.863 0 1 1 0 1.727.863.863 0 0 1 0-1.727M4.26 8.72a.863.863 0 1 1 1.726 0 .863.863 0 0 1-1.726 0m2.877 2.878a.863.863 0 1 1 1.726 0 .863.863 0 0 1-1.726 0M8 9.583a.863.863 0 1 1 0-1.726.863.863 0 0 1 0 1.726"/></g><defs><clipPath id="a"><path fill="#fff" d="M0 0h16v16H0z"/></clipPath></defs></svg>
